!!!COM:	Tinctoris, Johannes
!!!CDT:	~1435///-1511//
!!!OPR:	Missa L'homme arm&eacute;
!!!ONM:	4
!!!OTL:	Sanctus
!!!AGN:	Mass; Sanctus
!!!SCT:	Tin1001d
!!!SCA:	Tin1001d
!!!voices:	4
!!!voices-OPR:	4
**kern	**kern	**kern	**kern
*staff4	*staff3	*staff2	*staff1
*Ivox	*Ivox	*Ivox	*Ivox
*I"Bassus	*I"Tenor	*I"Altus	*I"Discantus
*I'B	*I'T	*I'A	*I'D
*>[A,B,C,D]	*>[A,B,C,D]	*>[A,B,C,D]	*>[A,B,C,D]
*>A	*>A	*>A	*>A
*clefF4	*clefGv2	*clefGv2	*clefG2
*k[b-]	*k[b-]	*k[b-]	*k[b-]
*M3/1	*M3/1	*M3/1	*M3/1
*met(O)	*met(C.)	*met(O)	*met(O)
!!primary-mensuration: met(O)
!!section: Sanctus
!!!OMD: Sanctus
!!incipit: 3
=1-	=1-	=1-	=1-
1.GG	1.r	1d	1.g
.	.	2d\	.
1C	1G	4e\	2.e/
.	.	2g\	.
.	.	8f\L	4f/
.	.	8e\J	.
2BB-/	2G/	2d\	2g/
=2	=2	=2	=2
1.AA	1c	4r	2.a/
.	.	4.c\	.
.	.	8B-/L	.
.	.	8A/	4b-\
.	.	8G/J	.
.	2c\	4.F#i/	4cc\
.	.	.	4a/
.	.	8E/	.
2GG/	2B-\	2G/	4b-\
.	.	.	2g/
1D	1A	2r	.
.	.	.	4f#i/
.	.	2A/	4f#i/
.	.	.	4e/
=3	=3	=3	=3
2r	1.G	2.B-\	1g
2.GG/	.	.	.
.	.	4c\	.
.	.	2.d\	2r
4AA/	.	.	.
2.BB-/	1.r	.	2.d/
.	.	4e\	.
.	.	2.f\	.
4C/	.	.	4e/
2D\	.	.	[2f/
.	.	4e\	.
=4	=4	=4	=4
2.BB-/	2d\	4d\	4f/]
.	.	4c\	4e/
.	2d\	2.B-\	4d/
4AA/	.	.	4c/
0GG	2d\	.	2.B-/
.	.	4G/	.
.	1.G	2d\	.
.	.	.	4G/
.	.	2r	1d
.	.	[2g\	.
=5	=5	=5	=5
2C/	1.r	4g\]	2e/
.	.	8f\L	.
.	.	8e\J	.
1.D	.	2.d\	2.f/
.	.	4e\	4g/
.	2d\	2.f\	2.a/
1D	2d\	.	.
.	.	4g\	4g/
.	2d\	[2a\	4f/
.	.	.	4e/
=6	=6	=6	=6
1r	2d\	4a\]	2f/
.	.	8g\L	.
.	.	8f\J	.
.	1c	4g\	2.e/
.	.	4a\	.
1r	.	2g\	.
.	.	.	4d/
.	2B-\	2.g\	1d
2r	1A	.	.
.	.	8f#i\L	.
.	.	8e\J	.
2A\	.	2f#i\	2c/
=7	=7	=7	=7
1.B-	0G	1g	0.d
.	.	2G/	.
2.G\	.	2.B-\	.
.	2r	.	.
4F\	.	8A/L	.
.	.	8G/J	.
2D\	2r	2A/	.
=8	=8	=8	=8
2E\	1G	2G/	0.r
2.C/	.	2.c\	.
.	2G/	.	.
4BB-/	.	2d\	.
2.D\	1F	.	.
.	.	8c\L	.
.	.	8B-\J	.
.	.	4A/	.
8C/L	.	4.c\	.
8BB-/J	.	.	.
2AA/	2F/	.	.
.	.	8B-/L	.
.	.	8A/	.
.	.	8G/J	.
=9	=9	=9	=9
*	*	*	*M3/1
*	*	*	*met(C.)
1GG	1G	2.B-\	1.g
.	.	4G/	.
1r	2G/	4B-\	.
.	.	4c\	.
.	2D/	2.d\	1.f
1D	2r	.	.
.	.	8c\L	.
.	.	8B-\J	.
.	2r	2A/	.
=10	=10	=10	=10
2E\	0.r	0G	1.g
2.C/	.	.	.
4GG/	.	.	.
2.BB-/	.	.	1.d
.	.	1r	.
4AA/	.	.	.
[2GG/	.	.	.
=11	=11	=11	=11
*	*	*M3/1	*M3/1
*	*	*met(C.)	*met(O)
2GG/]	0.r	1.g	2r
2G\	.	.	2B-/
2C/	.	.	2c/
1.D	.	1.f	4A/
.	.	.	4.d/
.	.	.	8c/
.	.	.	4B-/
.	.	.	2A/
=12	=12	=12	=12
2E\	0.r	1.g	0G
1C	.	.	.
2.G\	.	1.d	.
.	.	.	1r
4F\	.	.	.
2G\	.	.	.
=13	=13	=13	=13
2E\	0.r	2e\	2g/
2.D\	.	2.f\	2.a/
4E\	.	4e\	4g/
4F\	.	1d	2f/
4G\	.	.	.
1A	.	.	1e
.	.	2c#i\	.
=14	=14	=14	=14
*	*	*M3/1	*
*	*	*met(O)	*
2D\	2r	2.d\	1d
2.F\	1D	.	.
.	.	8c\L	.
.	.	8B-\J	.
.	.	0A	2r
4G\	.	.	.
4A\	2.F/	.	2d/
4B-\	.	.	.
1c	.	.	2.f/
.	4G/	.	.
.	4A/	.	.
.	4B-\	.	4g/
=15	=15	=15	=15
2F\	2c\	0.r	4a/
.	.	.	4b-\
1A	2A/	.	2.cc\
.	2c\	.	.
.	.	.	4b-\
2D\	2d\	.	1a
1G	1B-	.	.
.	.	.	2g/
=16	=16	=16	=16
0D	0A	0d	1a
.	.	.	2r
.	.	.	2f/
2.E\	1r	1G	2.g/
8F\L	.	.	8a/L
8G\J	.	.	8b-/J
=17	=17	=17	=17
1A	1F	2r	1cc
.	.	2A/	.
2r	2.G/	2.B-\	2.b-\
2G\	.	.	.
.	8A/L	8c\L	4a/
.	8B-/J	8d\J	.
2C/	1c	2e-i\	2g/
2F\	.	2c\	[2a/
=18	=18	=18	=18
2.D\	2.d\	2r	4a/]
.	.	.	4g/
.	.	2A/	4f/
8E\L	4c\	.	4e/
8F\J	.	.	.
2G\	4B-\	2B-\	2d/
.	4A/	.	.
2E\	2G/	2c\	2.g/
1D	1A	1d	.
.	.	.	4f#i/
.	.	.	4f#i/
.	.	.	8e/L
.	.	.	8f#i/J
=19	=19	=19	=19
2GG/	0G	2B-\	0g
2.C/	.	4.c\	.
.	.	8B-\	.
.	.	2.G/	.
4BB-/	.	.	.
2GG/	.	.	.
.	.	8F/L	.
.	.	8E/J	.
2AA/	1r	2F/	2r
4GG/	.	2G/	2g/
4G\	.	.	.
=20	=20	=20	=20
4F\	1.r	4r	2.a/
2A\	.	2F/	.
4G\	.	4G/	4b-\
2F\	.	2A/	2cc\
2G\	1G	4G/	4.bni\
.	.	4.g\	.
.	.	.	8cc\
2r	.	.	4dd\
.	.	8f\	.
.	.	4e\	2bni\
2G\	2G/	2d\	.
.	.	.	4a/
=21	=21	=21	=21
2.C/	1c	4.c\	1cc
.	.	8d\	.
.	.	4e\	.
4D\	.	4f\	.
4E\	2c\	2g\	1r
4F\	.	.	.
2G\	2B-\	2.g\	.
1D	1A	.	2r
.	.	8f#i\L	.
.	.	8e\J	.
.	.	2f#i\	2a/
=22	=22	=22	=22
2r	1.G	2.g\	2.b-\
1GG	.	.	.
.	.	8f\L	4a/
.	.	8e\J	.
.	.	2d\	2b-\
2.AA/	1.r	2.c\	2.cc\
.	.	.	.
4BB-/	.	4d\	4b-\
2C/	.	4.c\	4a/
.	.	.	4g/
.	.	8B-\	.
=23	=23	=23	=23
2.D\	1d	2A/	2.f/
.	.	2.A/	.
4E\	.	.	4g/
2F\	2d\	.	2a/
.	.	8B-\L	.
.	.	8c\J	.
4.G\	1.G	4.B-\	2.b-\
8A\	.	8c\	.
2.B-\	.	2.d\	.
.	.	.	4a/
.	.	.	4g/
8A\L	.	8c\L	8f/L
8G\J	.	8B-\J	8e/J
=24	=24	=24	=24
2A\	1r	2c\	2f/
1G	.	2d\	2g/
.	2r	4r	2d/
.	.	4.B-\	.
2.G\	2d\	.	4r
.	.	8c\	.
.	.	4d\	4B-/
.	1d	4B-\	4d/
8F\L	.	8A/L	4e/
8E\J	.	8G/J	.
4.D\	.	2A/	4.f/
8E\	.	.	8g/
=25	=25	=25	=25
4F\	2d\	1F	4a/
4G\	.	.	4b-\
2A\	1c	.	2cc\
2F\	.	2A/	4.a/
.	.	.	8g/
2G\	2B-\	2.d\	2.g/
1D	1A	.	.
.	.	8c\L	8f#i/L
.	.	8B-\J	8g/J
.	.	2A/	4f#i/
.	.	.	4e/
=26	=26	=26	=26
0.GGl	0.Gl	2.B-\	0.gl
.	.	4G/	.
.	.	0dl	.
!!LO:LB:i:g=z
=27||	=27||	=27||	=27||
*>B	*>B	*>B	*>B
*clefF4	*clefGv2	*clefGv2	*clefG2
*k[b-]	*k[b-]	*k[b-]	*k[b-]
*M2/1	*M2/1	*M2/1	*M2/1
*met(C|)	*met(C|)	*met(C|)	*met(C|)
!!section: Pleni
!!!OMD: Pleni
0r	0r	1G	0g
.	.	[1c	.
=28	=28	=28	=28
0r	0r	2c\]	1.g
.	.	2d\	.
.	.	2e\	.
.	.	4d\	4f/
.	.	4e\	4e/
=29	=29	=29	=29
0r	0r	1.f	0d
.	.	4e\	.
.	.	4d\	.
=30	=30	=30	=30
0r	0r	1c	1e
.	.	2r	2d/
.	.	[2d\	[2f/
=31	=31	=31	=31
0r	0r	4d\]	4f/]
.	.	4c\	4e/
.	.	4B-\	4d/
.	.	4A/	4c/
.	.	2G/	[1B-
.	.	[2d\	.
=32	=32	=32	=32
0r	0r	2d\]	2B-/]
.	.	4c\	4c/
.	.	4B-\	4d/
.	.	2c\	2e-i/
.	.	[2f\	[2d/
=33	=33	=33	=33
0r	0r	4f\]	4d/]
.	.	4g\	4c/
.	.	2e\	1c
.	.	1d	.
.	.	.	2Bni/
=34	=34	=34	=34
0r	0r	2.c\	1c
.	.	4B-\	.
.	.	1G	1B-
=35	=35	=35	=35
0r	0r	2r	0G
.	.	1d	.
.	.	[2g\	.
=36	=36	=36	=36
0r	0r	2g\]	0A
.	.	2f#i\	.
.	.	2f#i\	.
.	.	4e\	.
.	.	4f#i\	.
=37	=37	=37	=37
0r	0r	[0g	1r
.	.	.	[1G
=38	=38	=38	=38
0r	0r	0g]	2G/]
.	.	.	2.c/
.	.	.	4d/
.	.	.	2e/
=39	=39	=39	=39
0r	0r	1r	2f/
.	.	.	1d
.	.	[1G	.
.	.	.	[2g/
=40	=40	=40	=40
0r	0r	2G/]	4g/]
.	.	.	4f/
.	.	2.c\	4e/
.	.	.	4d/
.	.	.	1g
.	.	4d\	.
.	.	2e\	.
=41	=41	=41	=41
0r	0r	2f\	1a
.	.	1d	.
.	.	.	1b-
.	.	2g\	.
=42	=42	=42	=42
0r	0r	2e\	2g/
.	.	2c\	2.a/
.	.	2.d\	.
.	.	.	4g/
.	.	.	4f/
.	.	4c\	4e/
=43	=43	=43	=43
0r	0r	4B-\	2d/
.	.	4A/	.
.	.	1G	2e/
.	.	.	2d/
.	.	2B-\	[2g/
=44	=44	=44	=44
0r	0r	1A	2g/]
.	.	.	2f/
.	.	2G/	2.b-\
.	.	[2d\	.
.	.	.	8a/L
.	.	.	8b-/J
=45	=45	=45	=45
0r	0r	4d\]	4a/
.	.	4B-\	4g/
.	.	2c\	1g
.	.	1A	.
.	.	.	2f#i/
=46	=46	=46	=46
1r	0r	1G	0g
1GG	.	1r	.
=47	=47	=47	=47
1C	0r	1G	0r
1r	.	1c	.
=48	=48	=48	=48
2GG/	0r	2r	0r
2.C/	.	2G/	.
.	.	2.c\	.
4D\	.	.	.
4E\	.	.	.
4F\	.	4d\	.
=49	=49	=49	=49
2.G\	0r	4e\	0r
.	.	4c\	.
.	.	1g	.
4F\	.	.	.
2E\	.	.	.
2D\	.	2f\	.
=50	=50	=50	=50
1G	0r	2e\	0r
.	.	4d\	.
.	.	4c\	.
2F\	.	2d\	.
[2G\	.	[2e\	.
=51	=51	=51	=51
4G\]	0r	4e\]	0r
4F\	.	4d\	.
2E\	.	1c	.
1D	.	.	.
.	.	2Bni\	.
=52	=52	=52	=52
1C	0r	1c	0r
[1AA	.	1r	.
=53	=53	=53	=53
2AA/]	0r	1.A	0r
4BB-/	.	.	.
4C/	.	.	.
1D	.	.	.
.	.	4B-\	.
.	.	4c\	.
=54	=54	=54	=54
2BB-/	0r	1d	0r
1.GG	.	.	.
.	.	2B-\	.
.	.	[2G/	.
=55	=55	=55	=55
1C	0r	2G/]	0r
.	.	1c	.
1F	.	.	.
.	.	[2A/	.
=56	=56	=56	=56
1D	0r	2A/]	0r
.	.	1d	.
1G	.	.	.
.	.	2e\	.
=57	=57	=57	=57
2F\	0r	1f	0r
1D	.	.	.
.	.	2d\	.
2C/	.	[2e\	.
=58	=58	=58	=58
2D\	0r	4e\]	0r
.	.	4d\	.
2F\	.	1d	.
1E	.	.	.
.	.	2c#i\	.
=59	=59	=59	=59
0D	0r	1d	0r
.	.	1r	.
=60	=60	=60	=60
1r	0r	1.d	0r
[1D	.	.	.
.	.	4c\	.
.	.	4B-\	.
=61	=61	=61	=61
2D\]	0r	1.A	0r
4C/	.	.	.
4BB-/	.	.	.
[1AA	.	.	.
.	.	[2c\	.
=62	=62	=62	=62
2AA/]	0r	4c\]	0r
.	.	4B-\	.
2.C/	.	1G	.
4BB-/	.	.	.
2GG/	.	2B-\	.
=63	=63	=63	=63
2.D\	0r	2A/	0r
.	.	2.d\	.
4E\	.	.	.
2F\	.	.	.
.	.	4c\	.
[2G\	.	[2e\	.
=64	=64	=64	=64
4G\]	0r	4e\]	0r
4F\	.	4d\	.
2A\	.	4c\	.
.	.	4B-\	.
2.F#i\	.	1A	.
4E\	.	.	.
=65	=65	=65	=65
[0G	0r	0G	1r
.	.	.	1g
=66	=66	=66	=66
0G]	0r	1r	1b-
.	.	1d	1b-
=67	=67	=67	=67
2.D\	0r	1f	2a/
.	.	.	2.d/
4E\	.	.	.
1F	.	1f	.
.	.	.	4e/
.	.	.	2f/
=68	=68	=68	=68
1C	0r	1e	1g
1r	.	2d\	2a/
.	.	[2G/	[2b-\
=69	=69	=69	=69
1G	0r	4G/]	4b-\]
.	.	4A/	4a/
.	.	2B-\	4g/
.	.	.	4f/
1A	.	1c	1e
=70	=70	=70	=70
1D	0r	2.d\	2r
.	.	.	1d
.	.	4e\	.
2r	.	2f\	.
[2D\	.	[2d\	[2f/
=71	=71	=71	=71
4D\]	0r	2d\]	4f/]
4E\	.	.	4g/
2F\	.	2c\	2a/
2D\	.	2d\	2b-\
[2A\	.	2A/	[2cc\
=72	=72	=72	=72
2A\]	0r	2c\	4cc\]
.	.	.	4b-\
2F\	.	2d\	1a
1G	.	1B-	.
.	.	.	2g/
=73	=73	=73	=73
1D	0r	[0A	0a
1r	.	.	.
=74	=74	=74	=74
1.D	0r	0A]	1r
.	.	.	[1d
4E\	.	.	.
4F\	.	.	.
=75	=75	=75	=75
1.G	0r	0r	2d/]
.	.	.	4e/
.	.	.	4f/
.	.	.	1g
2E\	.	.	.
=76	=76	=76	=76
2F\	0r	0r	2a/
2E\	.	.	1g
1C	.	.	.
.	.	.	2e/
=77	=77	=77	=77
1D	0r	0r	2f/
.	.	.	2.d/
1GG	.	.	.
.	.	.	4c/
.	.	.	2B-/
=78	=78	=78	=78
2r	0r	0r	1A
2.AA/	.	.	.
.	.	.	2r
4BB-/	.	.	.
2C/	.	.	[2A/
=79	=79	=79	=79
2D\	0r	0r	4A/]
.	.	.	4B-/
2r	.	.	2c/
2.GG/	.	.	1d
4AA/	.	.	.
=80	=80	=80	=80
2BB-/	0r	0r	2r
1C	.	.	2.G/
.	.	.	4A/
2BB-/	.	.	2B-/
=81	=81	=81	=81
4AA/	0r	0r	2.c/
4GG/	.	.	.
2.C/	.	.	.
.	.	.	4B-/
.	.	.	4A/
4BB-/	.	.	4G/
[2D\	.	.	[2B-/
=82	=82	=82	=82
4D\]	0r	0r	4B-/]
4C/	.	.	4A/
2BB-/	.	.	1G
1AA	.	.	.
.	.	.	2F#i/
=83	=83	=83	=83
*	*	*M2/1	*
*	*	*met(O3/2)	*
*	*	*rscale:3/2	*
!	!	!LO:TX:Z=12:t=O 3/2 mensuration	!
[0GG	0r	0r	0G
*	*	*rscale:1	*
=84	=84	=84	=84
!!primary-mensuration: met(O3/2)
*	*M3/1	*	*M3/1
*	*met(O3/2)	*	*met(O3/2)
!	!LO:TX:Z=12:t=O 3/2 mensuration	!	!
!	!	!	!LO:TX:Z=12:t=O 3/2 mensuration
*rscale:2/3	*	*	*
0.GG]	0.r	0.r	1r
.	.	.	1r
.	.	.	[1d
*rscale:1	*	*	*
=85	=85	=85	=85
*M3/1	*	*	*
*met(O3/2)	*	*	*
!LO:TX:Z=12:t=O 3/2 mensuration	!	!	!
1r	0.r	1r	2d/]
.	.	.	2e/
1.GG	.	1r	1d
.	.	[1G	[1g
2AA/	.	.	.
=86	=86	=86	=86
1GG	0.r	2G/]	1g]
.	.	2A/	.
0C	.	1G	1r
.	.	[1c	[1g
=87	=87	=87	=87
1r	0.r	1c]	2g/]
.	.	.	2a/
1.C	.	1r	1g
.	.	[1c	[1cc
2D\	.	.	.
=88	=88	=88	=88
1C	0.r	2c\]	1cc]
.	.	2d\	.
1.F	.	1c	1.a
.	.	1f	.
2E\	.	.	2b-\
=89	=89	=89	=89
1C	0.r	1e	1cc
0G	.	0d	1.bni
.	.	.	4a/
.	.	.	4bni\
=90	=90	=90	=90
1C	0.r	1c	0cc
0AA	.	1e	.
.	.	1f	1a
=91	=91	=91	=91
1GG	0.r	0g	1b-
1.C	.	.	0g
.	.	1e	.
4D\	.	.	.
4E\	.	.	.
=92	=92	=92	=92
1F	0.r	1c	1a
0D	.	0d	1.f
.	.	.	4e/
.	.	.	4f/
=93	=93	=93	=93
0GG	0.r	1.B-	1g
.	.	.	1d
.	.	4A/	.
.	.	4B-\	.
2.AA/	.	1c	1r
4BB-/	.	.	.
=94	=94	=94	=94
0C	0.r	1.G	1.e
.	.	2A/	2f/
1BB-	.	1B-	1g
=95	=95	=95	=95
1AA	0.r	1.c	1.a
0AA	.	.	.
.	.	2B-\	2b-\
.	.	2A/	1cc
.	.	2G/	.
=96	=96	=96	=96
1GG	0.r	0d	1b-
1D	.	.	1.a
1F	.	1c	.
.	.	.	2g/
=97	=97	=97	=97
1G	0.r	1B-	1.g
0D	.	0A	.
.	.	.	4f#i/
.	.	.	4g/
.	.	.	2f#i/
.	.	.	2e/
=98	=98	=98	=98
0.GGl	0.r	0.Gl	0.gl
!!LO:LB:i:g=z
=99||	=99||	=99||	=99||
*>C	*>C	*>C	*>C
*clefF4	*clefGv2	*clefGv2	*clefG2
*k[b-]	*k[b-]	*k[b-]	*k[b-]
*M2/1	*M2/1	*M2/1	*M2/1
*met(C|)	*met(C|)	*met(C.)	*met(C|)
!!primary-mensuration: met(C|)
!!section: Osanna
!!!OMD: Osanna
!	!	!LO:TX:Z=20:X=-40:t=Crescit in duplum	!
*	*	*rscale:1/4	*
!	!	!LO:N:vis=1	!
0G	0d	[y0g	0r
=100	=100	=100-	=100
1E	2G/	0g]yy	0r
.	4A/	.	.
.	4B-\	.	.
2C/	2c\	.	.
[2G\	[2B-\	.	.
=101	=101	=101-	=101
2G\]	2B-\]	0g	0r
2F\	2A/	.	.
2E\	2G/	.	.
4D\	4F/	.	.
4C/	4E/	.	.
=102	=102	=102-	=102
!	!	!LO:N:vis=1	!
2.D\	4D/	[y0f	0r
.	4E/	.	.
.	4F/	.	.
4E\	4G/	.	.
4F\	2.A/	.	.
4G\	.	.	.
[2A\	.	.	.
.	4B-\	.	.
=103	=103	=103-	=103
2A\]	2c\	0f]yy	0r
2B-\	2d\	.	.
2A\	2r	.	.
[2d\	[2D/	.	.
=104	=104	=104-	=104
4d\]	1D]	0f	0r
4c\	.	.	.
2B-\	.	.	.
1A	1D	.	.
=105	=105	=105	=105
!	!	!LO:N:vis=1	!
0G	1E	[y0g	1g
.	[1C	.	[1e
=106	=106	=106-	=106
1r	2C/]	0g]yy	2e/]
.	2D/	.	2f/
[1C	2E/	.	2g/
.	2F/	.	2a/
=107	=107	=107-	=107
2C/]	1.G	0e	1g
2D\	.	.	.
2E\	.	.	[1g
2F\	2A/	.	.
=108	=108	=108-	=108
1.G	1.B-	0d	2g/]
.	.	.	4f/
.	.	.	4e/
.	.	.	1d
4F\	4A/	.	.
4E\	4G/	.	.
=109	=109	=109-	=109
!	!	!LO:N:vis=1	!
2F\	2A/	0r	2r
1G	2B-\	.	2.d/
.	1A	.	.
.	.	.	4e/
2F\	.	.	2f/
=110	=110	=110-	=110
2E\	2G/	0ryy	2g/
2C/	1c	.	2e/
1G	.	.	1d
.	2B-\	.	.
=111	=111	=111	=111
!	!	!LO:N:vis=1	!
1.C	2c\	[y0g	2.c/
.	1e-	.	.
.	.	.	4B-/
.	.	.	1G
4BB-/	4d\	.	.
4AA/	4c\	.	.
=112	=112	=112-	=112
2BB-/	2d\	0g]yy	1r
1C	2e-i\	.	.
.	1d	.	2r
2BBni/	.	.	2d/
=113	=113	=113-	=113
1C	2.c\	0g	2e/
.	.	.	1c
.	4B-\	.	.
1E	1G	.	.
.	.	.	2B-/
=114	=114	=114-	=114
!	!	!LO:N:vis=1	!
0D	2A/	[y0f	1d
.	2.D/	.	.
.	.	.	2.A/
.	4E/	.	.
.	4F/	.	.
.	4G/	.	4B-/
=115	=115	=115-	=115
1r	2A/	0f]yy	2c/
.	2B-\	.	2.d/
[1D	2A/	.	.
.	.	.	4c/
.	[2d\	.	2B-/
=116	=116	=116-	=116
1D]	4d\]	0f	1A
.	4c\	.	.
.	2B-\	.	.
1D	1A	.	1d
=117	=117	=117	=117
!	!	!LO:N:vis=1	!
1E-	1G	[y0g	2B-/
.	.	.	1G
1C	2r	.	.
.	[2G/	.	[2c/
=118	=118	=118-	=118
2C/	4G/]	0g]yy	4c/]
.	4F/	.	4A/
4BB-/	4G/	.	4B-/
4AA/	4A/	.	4c/
1GG	1B-	.	1d
=119	=119	=119-	=119
0AA	0A	0e	1.c
.	.	.	4B-/
.	.	.	4c/
=120	=120	=120-	=120
1BB-	2F/	0d	1d
.	2D/	.	.
2GG/	2d\	.	2B-/
[2G\	2c\	.	2G/
=121	=121	=121-	=121
2G\]	2B-\	0r	2g/
2F\	1A	.	2.a/
1D	.	.	.
.	.	.	4g/
.	[2d\	.	2f/
=122	=122	=122-	=122
0E	2d\]	0g	2e/
.	2c#i\	.	2.g/
.	2.c#i\	.	.
.	.	.	4f/
.	.	.	4e/
.	4Bni\	.	4d/
=123	=123	=123	=123
!	!	!LO:N:vis=1	!
1D	1d	[y0a	1.f
[1F	2c\	.	.
.	[2A/	.	4e/
.	.	.	4d/
=124	=124	=124-	=124
2F\]	2A/]	0a]yy	0c
2G\	2B-\	.	.
2F\	2A/	.	.
4E\	4G/	.	.
4D\	4F/	.	.
=125	=125	=125-	=125
2E\	4G/	0g	0r
.	4F/	.	.
1C	4E/	.	.
.	4D/	.	.
.	1E	.	.
2BB-/	.	.	.
=126	=126	=126-	=126
0D	1D	0f	3%2.dV
.	1r	.	3e/
.	.	.	3%2fZ
=127	=127	=127-	=127
!	!	!LO:N:vis=1	!
0C	1.E	[y0e	3%2.gV
.	.	.	3f/
.	.	.	3e/
.	4F/	.	.
.	.	.	3d/Z
.	4G/	.	.
=128	=128	=128-	=128
0AA	0A	0e]yy	3%2eV
.	.	.	3%2.c#i
.	.	.	3Bni/Z
=129	=129	=129	=129
!	!	!LO:N:vis=1.	!
1BB-	1F	[y0d	1d
2GG/	2G/	.	2r
[2D\	2F/	.	[2d/
=130	=130	=130-	=130
4D\]	1D	0d_yy	4d/]
4E\	.	.	4c/
2F\	.	.	2A/
2G\	2r	.	2B-/
[2B-\	[2G/	.	[2d/
=131	=131	=131-	=131
4B-\]	1G]	0d]yy	4d/]
4A\	.	.	4c/
1G	.	.	2B-/
.	1D	.	1A
2F#i\	.	.	.
=132	=132	=132-	=132
!	!	!LO:N:vis=1.	!
1G	3%2.GV	0r	2r
.	.	.	2G/
1GG	3A/	.	1g
.	3%2B-Z	.	.
=133	=133	=133-	=133
0AA	3%2.cV	0ryy	1e
.	3B-\	.	[1e
.	3A/	.	.
.	3G/Z	.	.
=134	=134	=134-	=134
0AA	3%2AV	0ryy	2e/]
.	.	.	4f/
.	3%2.F#i	.	.
.	.	.	4g/
.	.	.	1a
.	3E/Z	.	.
=135	=135	=135	=135
!	!	!LO:N:vis=1	!
1GG	1G	[y0G	2b-\
.	.	.	1g
1r	[1B-	.	.
.	.	.	4f/
.	.	.	4e/
=136	=136	=136-	=136
[0GG	2B-\]	0G]yy	0d
.	2c\	.	.
.	1d	.	.
=137	=137	=137-	=137
1GG]	1r	0G	[0g
[1C	[1G	.	.
=138	=138	=138-	=138
!	!	!LO:N:vis=1	!
1C]	2G/]	[y0c	1g]
.	1c	.	.
[1F	.	.	[1a
.	[2A/	.	.
=139	=139	=139-	=139
2F\]	2A/]	0c]yy	2a/]
2G\	2G/	.	2b-\
[1A	1F	.	1cc
=140	=140	=140-	=140
2A\]	1r	0c	1.a
4G\	.	.	.
4A\	.	.	.
2.F\	1A	.	.
.	.	.	4g/
4E\	.	.	4a/
=141	=141	=141	=141
0G	1d	0B-	1.b-
.	[1d	.	.
.	.	.	4a/
.	.	.	4g/
=142	=142	=142-	=142
!	!	!LO:N:vis=1	!
0D	2d\]	[y0A	2.f/
.	2e\	.	.
.	.	.	4g/
.	2.f\	.	[1a
.	4e\	.	.
=143	=143	=143-	=143
1r	1c	0A]yy	2a/]
.	.	.	4g/
.	.	.	4a/
1D	1d	.	2.f#i/
.	.	.	4e/
=144	=144	=144-	=144
!	!	!LO:N:vis=1.	!
1.E-i	2r	[y0G	0g
.	2.B-\	.	.
.	4c\	.	.
2D\	2d\	.	.
=145	=145	=145-	=145
2C/	2e-i\	0G_yy	0r
4BB-/	4d\	.	.
4AA/	4c\	.	.
1BB-	1d	.	.
=146	=146	=146-	=146
2C/	2c\	0G]yy	1.e
1G	1B-	.	.
2F\	2A/	.	2d/
=147	=147	=147	=147
!	!	!LO:N:vis=1.	!
2E\	2G/	0r	2c/
4D\	4F/	.	4Bni/
4C/	4E/	.	4A/
1D	1F	.	1Bni
=148	=148	=148-	=148
2C/	2G/	0ryy	1c
1F	1A	.	.
.	.	.	2r
2E\	2G/	.	2c/
=149	=149	=149-	=149
2D\	2F/	0ryy	2d/
1G	2G/	.	2B-/
.	1D	.	1A
2F#i\	.	.	.
=150	=150	=150-	=150
0G	1r	0d	1G
.	[1G	.	[1B-
=151	=151	=151-	=151
!	!	!LO:N:vis=1	!
1r	1G]	[y0d	2B-/]
.	.	.	4A/
.	.	.	4G/
[1D	[1F	.	1A
=152	=152	=152-	=152
2D\]	2F/]	0d]yy	1.d
4E\	4G/	.	.
4F\	4A/	.	.
1G	1B-	.	.
.	.	.	4e/
.	.	.	4f/
=153	=153	=153	=153
!	!	!LO:N:vis=1.	!
1E	2r	[y0G	1g
.	1G	.	.
[1C	.	.	1e
.	[2c\	.	.
=154	=154	=154-	=154
1C]	2c\]	0G_yy	1c
.	4B-\	.	.
.	4A/	.	.
[1GG	[1B-	.	[1d
=155	=155	=155-	=155
2GG/]	2B-\]	0G]yy	1d]
4AA/	2A/	.	.
4BB-/	.	.	.
1C	2G/	.	1e
.	4F/	.	.
.	4E/	.	.
=156	=156	=156-	=156
1BB-	1D	0d	2f/
.	.	.	2.d/
1GG	2r	.	.
.	.	.	4c/
.	[2G/	.	[2d/
=157	=157	=157-	=157
2r	4G/]	0d	2d/]
.	4A/	.	.
2.GG/	4B-\	.	2.B-/
.	4c\	.	.
.	2.d\	.	.
4AA/	.	.	4c/
4BB-/	.	.	4d/
4C/	4c\	.	4e/
=158	=158	=158-	=158
2D\	1A	0d	2f/
4E\	.	.	4g/
4F\	.	.	4a/
1G	2r	.	1b-
.	2G/	.	.
=159	=159	=159	=159
2F\	1A	0d	2a/
2.D\	.	.	2.f/
.	2.F/	.	.
4C/	.	.	4e/
2BB-/	.	.	2d/
.	4G/	.	.
=160	=160	=160-	=160
!	!	!LO:N:vis=1	!
1AA	4A/	[y0c	2.e/
.	4B-\	.	.
.	1c	.	.
.	.	.	4f/
2r	.	.	2g/
[2C/	[2A/	.	[2a/
=161	=161	=161-	=161
4C/]	4A/]	0c]yy	4a/]
4BB-/	4G/	.	4b-\
4AA/	4F/	.	2.cc\
4GG/	4E/	.	.
1AA	1F	.	.
.	.	.	4b-\
.	.	.	4a/
.	.	.	4g/
=162	=162	=162-	=162
2r	1G	0B-	1b-
1GG	.	.	.
.	2.d\	.	2g/
[2D\	.	.	[2f/
.	4e\	.	.
=163	=163	=163-	=163
!	!	!LO:N:vis=1	!
4D\]	2.f\	[y0A	4f/]
4E\	.	.	4g/
4F\	.	.	4a/
4G\	4e\	.	4b-\
2A\	[1c	.	2cc\
[2F\	.	.	[2a/
=164	=164	=164-	=164
4F\]	2c\]	0A]yy	4a/]
4E\	.	.	4g/
2C/	2e-i\	.	2e/
1D	[1d	.	1f#i
=165	=165	=165	=165
[0GGl	2d\]	[0Gl	[0gl
.	2.B-\	.	.
.	4G/	.	.
.	4B-\	.	.
.	4c\	.	.
=166	=166	=166-	=166
*	*^	*	*
0GG]	0B-\l	0d/l	0G]	0g]
*	*v	*v	*	*
*	*	*rscale:1	*
!!LO:TX:rj:i:Y=30:t=fine
!!LO:LB:i:g=z
=167||	=167||	=167||	=167||
*>D	*>D	*>D	*>D
*clefF4	*clefGv2	*clefGv2	*clefG2
*k[b-]	*k[b-]	*k[b-]	*k[b-]
*M2/1	*M2/1	*M2/1	*M2/1
*met(C|)	*met(C|)	*met(C|)	*met(C|)
!!section: Benedictus
!!!OMD: Benedictus
0r	0r	0r	0d
=168	=168	=168	=168
0r	0r	0r	1e
.	.	.	1e
=169	=169	=169	=169
0r	0G	0r	2d/
.	.	.	2e/
.	.	.	2d/
.	.	.	[2g/
=170	=170	=170	=170
0r	1A	0r	2g/]
.	.	.	4f/
.	.	.	4e/
.	1A	.	4f/
.	.	.	4e/
.	.	.	4d/
.	.	.	4c/
=171	=171	=171	=171
0r	2G/	0r	2B-/
.	1c	.	1e-
.	4B-\	.	4d/
.	4A/	.	4c/
=172	=172	=172	=172
0GG	4B-\	0r	1d
.	4A/	.	.
.	4G/	.	.
.	4F/	.	.
.	4E/	.	1G
.	4D/	.	.
.	[2G/	.	.
=173	=173	=173	=173
1AA	2G/]	0r	1r
.	2F#i/	.	.
1AA	2F#i/	.	1c
.	2E/	.	.
=174	=174	=174	=174
1GG	1G	0r	2B-/
.	.	.	1G
[1C	1r	.	.
.	.	.	[2c/
=175	=175	=175	=175
2C/]	2E/	0r	2c/]
2D\	2F/	.	2A/
2BB-/	2G/	.	2B-/
2AA/	2A/	.	2c/
=176	=176	=176	=176
2BB-/	2F/	0r	1d
2GG/	1G	.	.
1C	.	.	1e
.	[2A/	.	.
=177	=177	=177	=177
1D	2A/]	0r	2f/
.	2B-\	.	1d
2r	1G	.	.
2E\	.	.	[2g/
=178	=178	=178	=178
1C	1c	0r	2g/]
.	.	.	2e/
2D\	2A/	.	2f/
2BB-/	2B-\	.	2g/
=179	=179	=179	=179
2AA/	2c\	0r	2.a/
2.D\	1d	.	.
.	.	.	8g/L
.	.	.	8a/J
.	.	.	2b-\
4E\	.	.	.
2F\	2c\	.	[2a/
=180	=180	=180	=180
2D\	2d\	0r	4a/]
.	.	.	4g/
2G\	2B-\	.	1g
1D	1A	.	.
.	.	.	2f#i/
=181	=181	=181	=181
2r	1r	0r	0g
2.GG/	.	.	.
.	[1G	.	.
4AA/	.	.	.
2BB-/	.	.	.
=182	=182	=182	=182
1C	2G/]	0r	0r
.	1A	.	.
1D	.	.	.
.	2B-\	.	.
=183	=183	=183	=183
2.E\	2.c\	0r	0r
4F\	4d\	.	.
2G\	2e\	.	.
[2D\	[2f\	.	.
=184	=184	=184	=184
4D\]	4f\]	0r	0r
4E\	4e\	.	.
2F\	4d\	.	.
.	4c\	.	.
1G	2B-\	.	.
.	[2e-i\	.	.
=185	=185	=185	=185
2C/	4e-\]	0r	0r
.	4d\	.	.
2E\	1c	.	.
1D	.	.	.
.	2Bni\	.	.
=186	=186	=186	=186
1C	0c	0r	1r
2r	.	.	[1g
[2E\	.	.	.
=187	=187	=187	=187
2E\]	1r	0r	2g/]
2F\	.	.	4f/
.	.	.	4e/
[1D	[1d	.	2f/
.	.	.	2g/
=188	=188	=188	=188
2D\]	2d\]	0r	0a
2E\	4c\	.	.
.	4B-\	.	.
2.F\	1A	.	.
4E\	.	.	.
=189	=189	=189	=189
1G	1G	0r	1b-
[1F	2r	.	[1cc
.	[2A/	.	.
=190	=190	=190	=190
2F\]	2A/]	0r	2cc\]
2G\	2B-\	.	2b-\
2F\	[1c	.	2a/
4E\	.	.	4g/
4D\	.	.	4f/
=191	=191	=191	=191
2C/	2c\]	0r	2e/
2D\	2A/	.	1a
1GG	1B-	.	.
.	.	.	2g/
=192	=192	=192	=192
2r	1A	0r	0a
2.D\	.	.	.
.	1r	.	.
4C/	.	.	.
2AA/	.	.	.
=193	=193	=193	=193
1BB-	1.D	0r	1r
2r	.	.	[1d
[2GG/	[2G/	.	.
=194	=194	=194	=194
1GG]	1G]	0r	2d/]
.	.	.	1.g
[1C	[1E	.	.
=195	=195	=195	=195
2C/]	2E/]	0r	1.e
1.AA	2.A/	.	.
.	4G/	.	.
.	4F/	.	[2a/
.	4E/	.	.
=196	=196	=196	=196
1D	2D/	0r	4a/]
.	.	.	4g/
.	2.F/	.	4f/
.	.	.	4e/
2.BB-/	.	.	2d/
.	4E/	.	.
.	2D/	.	[2f/
4C/	.	.	.
=197	=197	=197	=197
2D\	2F/	0r	4f/]
.	.	.	4e/
2GG/	2G/	.	1d
1AA	1E	.	.
.	.	.	2c#i/
=198	=198	=198	=198
2r	1D	0r	0d
2A\	.	.	.
2B-\	1r	.	.
4A\	.	.	.
4G\	.	.	.
=199	=199	=199	=199
2.F\	2.D/	0r	0r
4G\	4E/	.	.
2A\	2F/	.	.
[2B-\	[2G/	.	.
=200	=200	=200	=200
2B-\]	2G/]	0r	1r
4A\	4F#i/	.	.
4G\	4E/	.	.
1A	1F#i	.	1c
=201	=201	=201	=201
2r	1G	0r	2B-/
2G\	.	.	2.d/
2.D\	2.d\	.	.
.	.	.	4c/
.	.	.	[2A/
4E\	4c\	.	.
=202	=202	=202	=202
2.F\	2.A/	0r	4A/]
.	.	.	4B-/
.	.	.	2.c/
4E\	8G/L	.	.
.	8F/J	.	.
[1C	2G/	.	.
.	.	.	4B-/
.	[2E/	.	2G/
=203	=203	=203	=203
2C/]	4E/]	0r	2A/
.	4D/	.	.
2BB-/	1D	.	1G
1AA	.	.	.
.	2C/	.	2F#i/
=204	=204	=204	=204
[0GG	1D	0r	0G
.	1D	.	.
=205	=205	=205	=205
0GG]	1G	0r	1r
.	1r	.	1G
=206	=206	=206	=206
1r	1C	0r	1c
1GG	[1G	.	1r
=207	=207	=207	=207
1C	2G/]	0r	1c
.	2F/	.	.
1r	2E/	.	[1g
.	2D/	.	.
=208	=208	=208	=208
1C	1E	0r	2g/]
.	.	.	2f/
[1G	1C	.	2e/
.	.	.	4d/
.	.	.	4c/
=209	=209	=209	=209
2G\]	1.G	0r	1d
2F\	.	.	.
2E\	.	.	1e
4D\	[2A/	.	.
4C/	.	.	.
=210	=210	=210	=210
1D	1A]	0r	1f
1E	1G	.	2g/
.	.	.	[2c/
=211	=211	=211	=211
1F	1A	0r	2c/]
.	.	.	1d
2G\	2B-\	.	.
2C/	[2c\	.	2e/
=212	=212	=212	=212
2.F\	4c\]	0r	2c/
.	4B-\	.	.
.	4A/	.	2.f/
4E\	4G/	.	.
4D\	2d\	.	.
4C/	.	.	4e/
[2G\	[2B-\	.	4d/
.	.	.	4c/
=213	=213	=213	=213
4G\]	4B-\]	0r	2d/
4F\	4A/	.	.
2E\	1G	.	1c
1D	.	.	.
.	2F/	.	2Bni/
=214	=214	=214	=214
0C	0G	0r	0c
=215	=215	=215	=215
*M3/1	*M3/1	*M3/1	*M3/1
*met(O3/2)	*met(O3/2)	*met(O3/2)	*met(O3/2)
!!LO:TX:Z=12:X=-40:t=O 3/2 mensuration
0.r	1E	0.r	0G
.	1.G	.	.
.	.	.	[1B-
.	2F/	.	.
=216	=216	=216	=216
0.r	1G	0.r	1B-]
.	1A	.	0c
.	2.F#i/	.	.
.	4E/	.	.
=217	=217	=217	=217
0GG	0.G	0.r	1G
.	.	.	1.B-
[1BB-	.	.	.
.	.	.	2c/
=218	=218	=218	=218
1BB-]	0.r	0.r	1d
0AA	.	.	1e
.	.	.	1f
=219	=219	=219	=219
1GG	0G	0.r	1g
1.G	.	.	1.b-
.	[1B-	.	.
2F\	.	.	2a/
=220	=220	=220	=220
1G	1B-]	0.r	1g
1A	0A	.	0cc
2.F#i\	.	.	.
4E\	.	.	.
=221	=221	=221	=221
1G	1G	0.r	1b-
1.D	1r	.	1.a
.	[1d	.	.
2E\	.	.	2g/
=222	=222	=222	=222
1F	2d\]	0.r	2f/
.	2c\	.	2e/
1G	2B-\	.	1d
.	2A/	.	.
1E	1G	.	[1g
=223	=223	=223	=223
1C	1c	0.r	2g/]
.	.	.	2e/
2D\	2A/	.	2f/
2BB-/	2B-\	.	2g/
1AA	1c	.	1a
=224	=224	=224	=224
1GG	0d	0.r	1.b-
2r	.	.	.
2D\	.	.	1.a
1F	1c	.	.
=225	=225	=225	=225
1G	1B-	0.r	1.g
0D	0A	.	.
.	.	.	2f#i/
.	.	.	2f#i/
.	.	.	4e/
.	.	.	4f#i/
=226	=226	=226	=226
0.GGl	0.Gl	0.r	0.gl
!!LO:TX:i:Y=40:rj:t=Osanna ut supra
=||	=||	=||	=||
*-	*-	*-	*-
!!!RDF**kern: l=long note in original notation
!!!RDF**kern: i=editorial accidental
!!!RDF**kern: V=start of tuplet marker
!!!RDF**kern: Z=end of tuplet marker
!!!ENC:	Complete Works Edition (Melin)
!!!END:	2014/06/10/
!!!EED:	Jesse Rodin
!!!EEV:	2014/06/12/
!!!ONB:	Translated from MusicXML and edited on 2014/06/12/ by Craig Sapp
!!muse2ps: T^@{OPR}^u^@{ONM}{. }@{OTL}^C^@{COM}^i2I150v105,85,85,150c140
